X: 26
T:Celery Jig
M:6/8
L:1/8
C:Bernhart
Z:Bernhart
K:A dor
e~e2 cAA| EAA cAA| e~e2 cAA| BGB dcB| !
e~e2 cAA| EAA cAA|ece gag |1 edc Acd :|2 edc A~A2 || !
EAc Acd| ege dcA|cBc AGE|cBc AGE|!
A~A2 cAc|ege dcA|e~e2 ged|cAG A~A2:|| !

